assets/color/blowing_snow.svg

<?xml version="1.0" encoding="UTF-8"?>
<svg version="1.1" viewBox="0 0 48 48" xmlns="http://www.w3.org/2000/svg">
<rect width="48" height="48" data-bg="1"/>
<path d="m20 11v4h2c1.1 0 2 0.9 2 2s-0.9 2-2 2h-17v4h17c3.31 0 6-2.69 6-6s-2.69-6-6-6h-2zm-15 14v4h32c1.1 0 2 0.9 2 2s-0.9 2-2 2h-2v4h2c3.31 0 6-2.69 6-6s-2.69-6-6-6h-32z" fill="#8a8a8a"/>
<path d="m41.7 14.87-1-1.74-3.7 2.14V11h-2v4.27l-3.7-2.14-1 1.74L34 17l-3.7 2.13 1 1.74 3.7-2.13V23h2v-4.26l3.7 2.13 1-1.74L38 17l3.7-2.13Z" clip-rule="evenodd" fill="#7be4ff" fill-rule="evenodd" stroke="#fff" stroke-width="1px"/>
</svg>

<?xml version="1.0" encoding="UTF-8" standalone="no"?>
<svg
   fill="none"
   viewBox="0 0 48 48"
   version="1.1"
   id="svg2"
   sodipodi:docname="blowing_snow.svg"
   inkscape:version="1.4.3 (1:1.4.3+202512261035+0d15f75042)"
   xmlns:inkscape="http://www.inkscape.org/namespaces/inkscape"
   xmlns:sodipodi="http://sodipodi.sourceforge.net/DTD/sodipodi-0.dtd"
   xmlns="http://www.w3.org/2000/svg"
   xmlns:svg="http://www.w3.org/2000/svg">
  <defs
     id="defs2" />
  <sodipodi:namedview
     id="namedview2"
     pagecolor="#ffffff"
     bordercolor="#666666"
     borderopacity="1.0"
     inkscape:showpageshadow="2"
     inkscape:pageopacity="0.0"
     inkscape:pagecheckerboard="0"
     inkscape:deskcolor="#d1d1d1"
     inkscape:zoom="16.625"
     inkscape:cx="24.030075"
     inkscape:cy="24.030075"
     inkscape:window-width="1920"
     inkscape:window-height="1011"
     inkscape:window-x="0"
     inkscape:window-y="32"
     inkscape:window-maximized="1"
     inkscape:current-layer="svg2" />
  <rect
     x="0.0"
     y="0.0"
     width="48.0"
     height="48.0"
     fill="#ff0000"
     stroke="none"
     data-bg="1"
     id="rect1"
     style="fill:#000000;fill-opacity:1" />
  <path
     id="path4"
     style="fill:#8a8a8a;fill-opacity:1;stroke:none"
     d="M 20 11 L 20 15 L 22 15 C 23.1 15 24 15.9 24 17 C 24 18.1 23.1 19 22 19 L 5 19 L 5 23 L 22 23 C 25.31 23 28 20.31 28 17 C 28 13.69 25.31 11 22 11 L 20 11 z M 5 25 L 5 29 L 37 29 C 38.1 29 39 29.9 39 31 C 39 32.1 38.1 33 37 33 L 35 33 L 35 37 L 37 37 C 40.31 37 43 34.31 43 31 C 43 27.69 40.31 25 37 25 L 5 25 z " />
  <path
     fill-rule="evenodd"
     d="m41.7 14.87-1-1.74-3.7 2.14V11h-2v4.27l-3.7-2.14-1 1.74L34 17l-3.7 2.13 1 1.74 3.7-2.13V23h2v-4.26l3.7 2.13 1-1.74L38 17l3.7-2.13Z"
     clip-rule="evenodd"
     fill="#ff0000"
     stroke="white"
     stroke-width="1px"
     id="path2"
     style="fill:#7be4ff;fill-opacity:1;stroke:none" />
</svg>
